X: 11010
T: Drunken Sailor, The
R: polka
M: 2/4
K: Gmajor
|:G2 BG|dG BG|AA AA|FA FD|G2 BG|dG BG|AA FA|G4:|
|:Bd dB|ce eG|Bd dG|cA AG|Bd dG|ce e2|d2 ef|g4:|
|:g3 f|e3 d|dB BG|AG G2|Bd dG|ce e2|d2 ef|g4:|

